img/bg-bottom.svg

<?xml version="1.0" encoding="UTF-8"?>
<svg width="3200px" height="660px" viewBox="0 0 3200 660" version="1.1" xmlns="http://www.w3.org/2000/svg" xmlns:xlink="http://www.w3.org/1999/xlink">
    <!-- Generator: Sketch 44.1 (41455) - http://www.bohemiancoding.com/sketch -->
    <title>bg-bottom</title>
    <desc>Created with Sketch.</desc>
    <defs>
        <linearGradient x1="103.418541%" y1="28.6722681%" x2="9.75962602%" y2="90.7646858%" id="linearGradient-1">
            <stop stop-color="#E8A640" offset="0%"></stop>
            <stop stop-color="#FC7E34" offset="100%"></stop>
        </linearGradient>
    </defs>
    <g id="Page-1" stroke="none" stroke-width="1" fill="none" fill-rule="evenodd">
        <g id="Desktop" transform="translate(-997.000000, -1066.000000)">
            <g id="bg-bottom" transform="translate(997.000000, 1066.000000)">
                <path d="M0,0.761977886 C0,0.761977886 155.264,76.6534149 394.0864,74.943864 C553.224533,73.807988 698.634976,-8.74381324 910.756576,0.761977904 C1053.99711,7.18139872 1211.4688,97.4376522 1371.42613,96.1411472 C1534.7968,94.8159585 1705.89583,4.29581446 1954.67947,0.761977886 C2203.4631,-2.77185868 2417.85173,114.515951 2616.74667,117.332694 C2958.44693,122.174509 3194.3424,22.0912063 3200,32.5550343 L3200,786.59349 L0,786.59349 L0,0.761977886 Z" id="Fill-1-Copy" fill="url(#linearGradient-1)"></path>
                <path d="M0,271.557888 C0,271.557888 155.264,426.72034 394.0864,423.225109 C553.224533,420.902774 698.634976,252.122996 910.756576,271.557888 C1053.99711,284.682598 1211.4688,469.214373 1371.42613,466.563628 C1534.7968,463.854237 1705.89583,278.782929 1954.67947,271.557888 C2203.4631,264.332847 2417.85173,504.131496 2616.74667,509.890417 C2958.44693,519.789662 3194.3424,315.166173 3200,336.559801 L3200,786.916795 L0,786.916795 L0,271.557888 Z" id="Fill-1" fill="#FFFFFF" style="mix-blend-mode: overlay;" opacity="0.200000003"></path>
                <path d="M0,639.578087 C0,639.578087 113.389875,348.840551 515.821875,357.90704 C836.342408,365.132081 901.248,552.502265 1087.68427,552.912779 C1241.2416,553.24119 1416.4736,349.907886 1576.35413,357.907039 C1734.76693,365.835818 1878.35733,572.981035 2033.49333,574.576174 C2184.6272,576.124397 2312.03594,343.668078 2553.69387,336.243644 C2795.3518,328.819211 2866.7058,493.095063 2972.05833,552.912774 C3135.90687,645.923451 3200,661.241482 3200,661.241482 L3200,786.600639 L0,786.600639 L0,639.578087 Z" id="Fill-3" fill="#FFFFFF" style="mix-blend-mode: overlay;" opacity="0.400000006"></path>
                <path d="M3200,531.072206 C3042.36373,531.072206 3019.1104,692.357177 2522.1632,682.739428 C2387.38773,680.135598 2102.05867,451.831332 1954.67947,444.406898 C1784.51627,435.821297 1608.61013,618.722747 1434.47893,617.737514 C1256.56747,616.728824 1096.2688,454.68147 930.048,444.406898 C747.776,433.135365 559.3344,659.950052 409.856,639.400909 C94.5834667,596.07412 0,466.070293 0,466.070293 L0,786.43519 L3200,786.43519 L3200,531.072206 Z" id="Fill-5" fill="#FFFFFF" style="mix-blend-mode: overlay;" opacity="0.600000024"></path>
            </g>
        </g>
    </g>
</svg>

<svg width="3200" height="660" viewBox="0 0 3200 660" xmlns="http://www.w3.org/2000/svg"><title>bg-bottom</title><desc>Created with Sketch.</desc><defs><linearGradient x1="103.419%" y1="28.672%" x2="9.76%" y2="90.765%" id="a"><stop stop-color="#E8A640" offset="0%"/><stop stop-color="#FC7E34" offset="100%"/></linearGradient></defs><g fill="none"><path d="M0 .762s155.264 75.891 394.086 74.182c159.138-1.136 304.549-83.688 516.67-74.182 143.241 6.419 300.712 96.676 460.67 95.379 163.371-1.325 334.47-91.845 583.253-95.379 248.784-3.534 463.172 113.754 662.067 116.571 341.7 4.842 577.596-95.241 583.253-84.778v754.038h-3200v-785.832z" fill="url(#a)"/><path d="M0 271.558s155.264 155.162 394.086 151.667c159.138-2.322 304.549-171.102 516.67-151.667 143.241 13.125 300.712 197.656 460.67 195.006 163.371-2.709 334.47-187.781 583.253-195.006 248.784-7.225 463.172 232.574 662.067 238.333 341.7 9.899 577.596-194.724 583.253-173.331v450.357h-3200v-515.359z" fill="#fff" style="mix-blend-mode:overlay" opacity=".2"/><path d="M0 639.578s113.39-290.738 515.822-281.671c320.521 7.225 385.426 194.595 571.862 195.006 153.557.328 328.789-203.005 488.67-195.006 158.413 7.929 302.003 215.074 457.139 216.669 151.134 1.548 278.543-230.908 520.201-238.333 241.658-7.424 313.012 156.851 418.364 216.669 163.849 93.011 227.942 108.329 227.942 108.329v125.359h-3200v-147.023z" fill="#fff" style="mix-blend-mode:overlay" opacity=".4"/><path d="M3200 531.072c-157.636 0-180.89 161.285-677.837 151.667-134.775-2.604-420.105-230.908-567.484-238.333-170.163-8.586-346.069 174.316-520.201 173.331-177.911-1.009-338.21-163.056-504.431-173.331-182.272-11.272-370.714 215.543-520.192 194.994-315.273-43.327-409.856-173.331-409.856-173.331v320.365h3200v-255.363z" fill="#fff" style="mix-blend-mode:overlay" opacity=".6"/></g></svg>
